svg/folder-shared.svg

<?xml version="1.0" encoding="UTF-8"?>
<svg xmlns="http://www.w3.org/2000/svg" xmlns:xlink="http://www.w3.org/1999/xlink" width="32" height="32" viewBox="0 0 32 32">
<path fill-rule="nonzero" fill="rgb(0%, 0%, 0%)" fill-opacity="1" d="M 5.527344 2.558594 C 4.597656 2.5625 3.839844 3.316406 3.839844 4.246094 L 3.839844 7 L 28.160156 7 L 28.160156 6.339844 C 28.160156 5.449219 27.4375 4.453125 26.472656 4.453125 L 12.382812 4.460938 C 12.253906 4.40625 11.988281 4.023438 11.828125 3.792969 C 11.429688 3.214844 10.976562 2.558594 10.238281 2.558594 Z M 4.480469 8.28125 C 4.308594 8.28125 4.148438 8.347656 4.027344 8.46875 C 3.90625 8.585938 3.839844 8.75 3.839844 8.921875 L 3.839844 21.351562 C 3.839844 22.285156 4.59375 23.039062 5.527344 23.039062 L 15.359375 23.039062 L 15.359375 24.960938 L 16.640625 24.960938 L 16.640625 23.039062 L 26.472656 23.039062 C 27.40625 23.039062 28.160156 22.285156 28.160156 21.351562 L 28.160156 8.921875 C 28.160156 8.753906 28.09375 8.589844 27.972656 8.46875 C 27.851562 8.347656 27.691406 8.28125 27.519531 8.28125 Z M 15.359375 26.238281 C 15.007812 26.238281 14.722656 26.523438 14.71875 26.878906 L 14.71875 28.160156 C 14.71875 28.515625 15.007812 28.800781 15.359375 28.800781 L 16.640625 28.800781 C 16.996094 28.800781 17.28125 28.511719 17.28125 28.160156 L 17.28125 26.878906 C 17.28125 26.527344 16.992188 26.242188 16.640625 26.238281 Z M 7.359375 26.878906 C 7.015625 26.890625 6.746094 27.171875 6.746094 27.515625 C 6.746094 27.863281 7.015625 28.144531 7.359375 28.15625 L 13.441406 28.160156 L 13.441406 26.878906 Z M 18.558594 26.878906 L 18.558594 28.160156 L 24.640625 28.160156 C 24.984375 28.144531 25.257812 27.863281 25.257812 27.519531 C 25.257812 27.175781 24.984375 26.890625 24.640625 26.878906 Z M 18.558594 26.878906 "/>
</svg>

<svg role="img" viewBox="0 0 32 32" height="32" width="32" xmlns="http://www.w3.org/2000/svg"><path d="M5.527 2.559A1.69 1.69 0 0 0 3.84 4.246V7h24.32v-.66c0-.89-.723-1.887-1.687-1.887l-14.09.008c-.13-.055-.395-.438-.555-.668-.398-.578-.851-1.234-1.59-1.234ZM4.48 8.28a.639.639 0 0 0-.64.64v12.43c0 .934.754 1.688 1.687 1.688h9.832v1.922h1.282v-1.922h9.832c.933 0 1.687-.754 1.687-1.687V8.922a.639.639 0 0 0-.64-.64Zm10.88 17.957a.644.644 0 0 0-.641.64v1.282c0 .356.289.64.64.64h1.282a.64.64 0 0 0 .64-.64V26.88a.643.643 0 0 0-.64-.64Zm-8 .64a.641.641 0 0 0 0 1.281l6.081.001V26.88Zm11.199 0v1.282h6.082a.641.641 0 0 0 0-1.281Zm0 0"/></svg>
